icons/read-only-non-editable-24.svg

<?xml version="1.0" encoding="UTF-8"?><svg id="icons" xmlns="http://www.w3.org/2000/svg" viewBox="0 0 24 24"><path d="M8.79523,17.48804l-1.41345-1.41376,2.92694-2.92719-.70728-.70728-3.60352,3.60352-1.75574,4.09619c-.05981,.13959-.02863,.30151,.07874,.40887s.26935,.13855,.40887,.07874l4.09619-1.75568,3.60364-3.60345-.70715-.70721-2.92725,2.92725Zm-3.01495,1.6004l.96124-2.24036,1.27997,1.28027-2.24121,.96008ZM15.67932,7.77594l1.41388,1.41412-2.5426,2.5426,.70728,.70734,4.72125-4.72101c.3905-.39056,.3609-.99329-.02966-1.38489l-1.41388-1.41388c-.3916-.39062-.99438-.42023-1.38489-.02966l-4.72113,4.72113,.70709,.70709,2.54266-2.54285Zm1.87537-1.87549c.07971-.07971,.18817-.12396,.3009-.1228,.11267,.00116,.22021,.04767,.29822,.12897l.80402,.83807c.15802,.16467,.15527,.42542-.00604,.58679l-1.15155,1.15155-1.41388-1.41418,1.16833-1.1684Zm5.43531,14.8183l.01-16.4375c0-1.25781-1.02344-2.28125-2.28125-2.28125H4.28125c-1.25781,0-2.28125,1.02344-2.28125,2.28125V20.71875c0,1.25781,1.02344,2.28125,2.28125,2.28125H20.71875c1.25781,0,2.27125-1.02344,2.27125-2.28125ZM5.81787,3h14.90088c.70654,0,1.28125,.57471,1.28125,1.28125V20.71875c0,.1723-.03644,.33588-.09839,.48608L3.79517,3.09839c.15021-.06195,.31378-.09839,.48608-.09839h1.53662Zm-1.53662,19c-.70654,0-1.28125-.57471-1.28125-1.28125V4.28125c0-.16626,.03705-.32318,.09491-.46906L21.18781,21.90509c-.14587,.05786-.3028,.09491-.46906,.09491H4.28125Z"/><path fill="none" d="M0 0h24v24H0z"/></svg>

<svg xmlns="http://www.w3.org/2000/svg" viewBox="0 0 24 24"><path d="M8.795 17.488l-1.413-1.414 2.927-2.927-.708-.707-3.603 3.603-1.756 4.097a.371.371 0 0 0 .488.487l4.096-1.756 3.604-3.603-.708-.707-2.927 2.927zm-3.015 1.6l.962-2.24 1.28 1.28-2.242.96zm9.9-11.312l1.413 1.414-2.542 2.543.707.707 4.721-4.721c.39-.39.361-.993-.03-1.385L18.536 4.92c-.392-.39-.995-.42-1.385-.03L12.43 9.613l.707.707 2.542-2.543zM17.554 5.9a.42.42 0 0 1 .599.007l.804.838a.42.42 0 0 1-.006.586L17.8 8.483l-1.414-1.414L17.555 5.9zm5.436 14.82L23 4.28A2.284 2.284 0 0 0 20.719 2H4.28A2.284 2.284 0 0 0 2 4.281V20.72A2.284 2.284 0 0 0 4.281 23H20.72a2.275 2.275 0 0 0 2.271-2.281zM5.818 3h14.9C21.426 3 22 3.575 22 4.281V20.72c0 .172-.036.336-.098.486L3.795 3.098A1.27 1.27 0 0 1 4.281 3h1.537zM4.28 22A1.283 1.283 0 0 1 3 20.719V4.28c0-.166.037-.323.095-.469l18.093 18.093a1.268 1.268 0 0 1-.47.095H4.282z"/><path fill="none" d="M0 0h24v24H0z"/></svg>
